X:17
%%etbk:tnset id:6,pos:3,rep:3
%%etbk:site1 http://www.thesession.org/tunes/display/1131
T: Richard Dwyer's
Z: Piano Box Version by Martin Fleischmann (www.boxplayer.ch)
M: 4/4
L: 1/8
R: Reel
K: Ador
!2!AA!1!EA !3!cd!5!ec | !4!d2!2!B!1!G !4!A!2!F!3!G!2!F | !1!E!2!A!4!c!2!A !1!B!2!d!5!g!4!f | !2!e!5!aag !5!a3g |
!2!eged !3!c!1!A !3!(3A!2!A!1!A | !5!ged!1!c !3!BA!1!G!3!B | !2!A!1!E!3!cE !4!dE!3!c!4!d|1 !5!e!3!c!4!dB !3!c!1!A!2!B!1!G:|2 !5!ec!3!d!2!B B!1!AA2||
|:!5!a2!2!ea agef | !4!g!3!e!2!d!4!g !1!B!4!g!2!d!4!g | !5!a!4!g!3!e!2!d !1!B!4!d !5!ed | !3!cA!2!B!1!G !1!G!2!A!1!A2|
!5!a2ea agef | !4!ged!1!c !3!BA!1!G!3!B | !1!ABc!4!d !2!e!5!aag | !2!ee!1!d!2!B B!1!AA2:||


